packages/gestalt-icons-android/vr-theme/ic_vr_graph-pie_gestalt.svg

<svg width="24" height="24" viewBox="0 0 24 24" fill="none" xmlns="http://www.w3.org/2000/svg">
<path fill-rule="evenodd" clip-rule="evenodd" d="M10 14V2.20203C8.73598 2.46006 7.52747 2.96155 6.4443 3.6853C4.79981 4.78412 3.51809 6.3459 2.76121 8.17316C2.00433 10.0004 1.8063 12.0111 2.19215 13.9509C2.578 15.8907 3.53041 17.6725 4.92894 19.0711C6.32746 20.4696 8.10929 21.422 10.0491 21.8078C11.9889 22.1937 13.9996 21.9957 15.8268 21.2388C17.6541 20.4819 19.2159 19.2002 20.3147 17.5557C21.0385 16.4725 21.5399 15.264 21.798 14H10ZM22.0027 14.0002C22.0027 14.0002 22.0022 14.0002 22.0013 14L22.0027 14.0002ZM9.9998 1.99724C9.99984 1.99723 9.99993 1.9977 9.99998 1.99867L9.9998 1.99724ZM22 12C23.1046 12 24.017 12.9015 23.8337 13.9908C23.5536 15.6557 22.924 17.2506 21.9776 18.6668C20.6591 20.6402 18.7849 22.1783 16.5922 23.0866C14.3995 23.9948 11.9867 24.2324 9.65892 23.7694C7.33115 23.3064 5.19295 22.1635 3.51472 20.4853C1.83649 18.807 0.693605 16.6689 0.230582 14.3411C-0.232441 12.0133 0.00519949 9.60051 0.913451 7.4078C1.8217 5.21508 3.35977 3.34094 5.33316 2.02236C6.74943 1.07604 8.34427 0.446379 10.0092 0.166276C11.0985 -0.0169766 12 0.895428 12 2V12H22ZM21.746 8C21.6528 7.63912 21.5343 7.2844 21.391 6.93853C20.989 5.96792 20.3997 5.08601 19.6569 4.34314C18.914 3.60027 18.0321 3.011 17.0615 2.60896C16.7156 2.4657 16.3609 2.34721 16 2.25403V8H21.746ZM22.003 7.99974C22.003 7.9998 22.0023 7.99995 22.0008 7.99999L22.003 7.99974ZM16.0003 1.99701C16.0003 1.99703 16.0003 1.99778 16 1.99921L16.0003 1.99701ZM23.8007 8.01329C24.0201 9.09584 23.1046 10 22 10H14L14 2C14 0.895428 14.9042 -0.0201117 15.9867 0.199334C16.6152 0.326738 17.2315 0.514609 17.8268 0.761202C19.0401 1.26375 20.1425 2.00034 21.0711 2.92893C21.9997 3.85751 22.7363 4.95991 23.2388 6.17316C23.4854 6.76849 23.6733 7.38479 23.8007 8.01329Z" fill="black"/>
</svg>

<svg xmlns="http://www.w3.org/2000/svg" width="24" height="24"><path d="M10 14V2.2A10 10 0 1 0 21.8 14zm12-2c1.1 0 2.02.9 1.83 2A12 12 0 1 1 10.01.16C11.1-.02 12 .9 12 2v10zm-.25-4A8 8 0 0 0 16 2.25V8zm2.05 0c.22 1.1-.7 2-1.8 2h-8V2c0-1.1.9-2.02 1.99-1.8A10 10 0 0 1 23.8 8"/></svg>
